X:638
T:Reel 638
M:4/4
K:Gmaj
L:1/8
G>A (3AGA B>A (3AGA |BcdB G2B2|G>A (3AGA B>d (3BAG |eaag efed||e>A (3AGA e>A (3AAA |e>A (3AAA e2d2|Ggfg f2d2|eaaf g2dB|G2BG A2B2|AGAB A2BA|Ggfg e2d2|egfd e2dB|G2Bc A2GA|BcAc BGG2|
